X:2
T:Macfarlane O'The Sprots O'Burnieboozie
C:Joe Buchanan's Scottish Tome - Page 054.0
I:054 0
C:Willie Kemp
R:Air
Z:Carl Allison
L:1/8
M:2/4
K:D
A | "D"DD FA |  dd dc/d/ | "G"ed Bd | "D"A3 A |
| "G"BB G>B | "D"AA F>G | "D"AA "Bm"GF | "Em"E3 "A7"A |
| "D"DD FA | dd dc/d/ | "G"ed Bd |"D" A3 F |
| "G"G>B "E7/G#"dB | "D"AB AF | "Em/A7"E4  | "D"D3|]
A | "D"F<A A>F | E D2 E | FA A>B | A4 ||
| "G"B>c dc |"D" BA GF |"G" B2 "Em"E2 | E2> "A7"A2 |
| "D"F>A A>F | "G"E D2 E | "D"FA A>B | "A7"A4 |
| "G"B>c dB | "D"AF GF | "Em"E4 | "D"D3 |]
A | "D"d>e f>e | d d2 A | "G"BG dB | "D"A3 A |
| "G"BB "E7/G#"G>B |"D" AA F>G |"Em" AA GF |"A7" E3 A |
|"D" DD FA | dd dc/2d/2 | "G"ed  "E7/G#"Bd | "D"A3 F |
| "G"G>B "E7/G#"dB |"D" Ad "G"gf | "A7"e4 | "D"d4 |]
